X: 1774
T: Seyr-i Kürdî`yi...
C: Ahmet Avni Konuk
O: Turkey
F: http://compmusic.upf.edu/node/140
N: kurdi--kupe--musemmen--seyr-i--ahmet_avni_konuk
N: makam= kurdi
N: form= kupe
N: usul= musemmen = 8/8
M: 8/8
L: 1/16
K: C _B   
Q: 1/4=96
%%MIDI tuningsystem comma53
d4 e2fe d^3/4cd4z2  | d4 efed ^c=BcB A2z2  | \
w:  Seyr_ i  Kür *  *  *  dî  |  yi  di *  ğer  *  *  *  sû  | 
g4 g2ga {b}aggf edc2  | 
w:  ret te  de  *  *  *  *  et  | 
def2 gagf egf4z2  | f4 f2ef gaag fed2  | 
w:  tim  *  *  â *  yân    |  Düş me sin *  *  *  ler   | 
d4 e2fe d^cd4d=c  | c4 c2c2 _e2d2 c2B2  | \
w:  şüp he ye  *  *  *  mec  |  lis te  bâ *  ri   | 
B2A2 G2AB {c}BAA4z2  | 
w:  mut *  rı bân    | 
|


